packages/katcn/src/icons/svg/layout1.svg

<svg width="24" height="25" viewBox="0 0 24 25" fill="none" xmlns="http://www.w3.org/2000/svg">
<path d="M17.6219 2.40002H6.27861C3.89055 2.40002 2 4.30002 2 6.70002V18.2C2 20.5 3.89055 22.4 6.27861 22.4H17.7214C20.1095 22.4 22 20.5 22 18.1V6.70002C21.9005 4.30002 20.01 2.40002 17.6219 2.40002ZM3.99005 18.1V6.70002C3.99005 5.40002 4.98507 4.40002 6.27861 4.40002H10.9552V20.4H6.27861C4.98507 20.4 3.99005 19.4 3.99005 18.1ZM19.9104 18.1C19.9104 19.4 18.9154 20.4 17.6219 20.4H12.9453V4.40002H17.6219C18.9154 4.40002 19.9104 5.40002 19.9104 6.70002V18.1Z" fill="black"/>
</svg>

<svg xmlns="http://www.w3.org/2000/svg" fill="none" viewBox="0 0 24 25"><path fill="#000" d="M17.622 2.4H6.279C3.89 2.4 2 4.3 2 6.7v11.5c0 2.3 1.89 4.2 4.279 4.2H17.72c2.39 0 4.28-1.9 4.28-4.3V6.7c-.1-2.4-1.99-4.3-4.378-4.3M3.99 18.1V6.7c0-1.3.995-2.3 2.289-2.3h4.676v16H6.28c-1.294 0-2.289-1-2.289-2.3m15.92 0c0 1.3-.995 2.3-2.288 2.3h-4.677v-16h4.677c1.293 0 2.288 1 2.288 2.3z"/></svg>
